images/icon-github.svg

<?xml version="1.0" encoding="UTF-8" standalone="no"?>
<svg width="16px" height="14px" viewBox="0 0 16 14" version="1.1" xmlns="http://www.w3.org/2000/svg" xmlns:xlink="http://www.w3.org/1999/xlink">
    <!-- Generator: Sketch 39.1 (31720) - http://www.bohemiancoding.com/sketch -->
    <title>icon-github</title>
    <desc>Created with Sketch.</desc>
    <defs></defs>
    <g id="Symbols" stroke="none" stroke-width="1" fill="none" fill-rule="evenodd">
        <g id="icon-github" fill="#ECEFF1">
            <g id="Shape">
                <path d="M6.15384615,9.23076923 C6.15384615,9.48717949 6.11378205,9.75 6.03365385,10.0192308 C5.95352564,10.2884615 5.81570513,10.5320513 5.62019231,10.75 C5.42467949,10.9679487 5.19230769,11.0769231 4.92307692,11.0769231 C4.65384615,11.0769231 4.42147436,10.9679487 4.22596154,10.75 C4.03044872,10.5320513 3.89262821,10.2884615 3.8125,10.0192308 C3.73237179,9.75 3.69230769,9.48717949 3.69230769,9.23076923 C3.69230769,8.97435897 3.73237179,8.71153846 3.8125,8.44230769 C3.89262821,8.17307692 4.03044872,7.92948718 4.22596154,7.71153846 C4.42147436,7.49358974 4.65384615,7.38461538 4.92307692,7.38461538 C5.19230769,7.38461538 5.42467949,7.49358974 5.62019231,7.71153846 C5.81570513,7.92948718 5.95352564,8.17307692 6.03365385,8.44230769 C6.11378205,8.71153846 6.15384615,8.97435897 6.15384615,9.23076923 L6.15384615,9.23076923 Z M12.3076923,9.23076923 C12.3076923,9.48717949 12.2676282,9.75 12.1875,10.0192308 C12.1073718,10.2884615 11.9695513,10.5320513 11.7740385,10.75 C11.5785256,10.9679487 11.3461538,11.0769231 11.0769231,11.0769231 C10.8076923,11.0769231 10.5753205,10.9679487 10.3798077,10.75 C10.1842949,10.5320513 10.0464744,10.2884615 9.96634615,10.0192308 C9.88621795,9.75 9.84615385,9.48717949 9.84615385,9.23076923 C9.84615385,8.97435897 9.88621795,8.71153846 9.96634615,8.44230769 C10.0464744,8.17307692 10.1842949,7.92948718 10.3798077,7.71153846 C10.5753205,7.49358974 10.8076923,7.38461538 11.0769231,7.38461538 C11.3461538,7.38461538 11.5785256,7.49358974 11.7740385,7.71153846 C11.9695513,7.92948718 12.1073718,8.17307692 12.1875,8.44230769 C12.2676282,8.71153846 12.3076923,8.97435897 12.3076923,9.23076923 L12.3076923,9.23076923 Z M13.8461538,9.23076923 C13.8461538,8.46153846 13.625,7.80769231 13.1826923,7.26923077 C12.7403846,6.73076923 12.1410256,6.46153846 11.3846154,6.46153846 C11.1217949,6.46153846 10.4967949,6.52884615 9.50961538,6.66346154 C9.05448718,6.73397436 8.55128205,6.76923077 8,6.76923077 C7.44871795,6.76923077 6.94551282,6.73397436 6.49038462,6.66346154 C5.51602564,6.52884615 4.89102564,6.46153846 4.61538462,6.46153846 C3.85897436,6.46153846 3.25961538,6.73076923 2.81730769,7.26923077 C2.375,7.80769231 2.15384615,8.46153846 2.15384615,9.23076923 C2.15384615,9.79487179 2.25641026,10.286859 2.46153846,10.7067308 C2.66666667,11.1266026 2.92628205,11.4567308 3.24038462,11.6971154 C3.55448718,11.9375 3.94551282,12.1298077 4.41346154,12.2740385 C4.88141026,12.4182692 5.33012821,12.5128205 5.75961538,12.5576923 C6.18910256,12.6025641 6.66666667,12.625 7.19230769,12.625 L8.80769231,12.625 C9.33333333,12.625 9.81089744,12.6025641 10.2403846,12.5576923 C10.6698718,12.5128205 11.1185897,12.4182692 11.5865385,12.2740385 C12.0544872,12.1298077 12.4455128,11.9375 12.7596154,11.6971154 C13.0737179,11.4567308 13.3333333,11.1266026 13.5384615,10.7067308 C13.7435897,10.286859 13.8461538,9.79487179 13.8461538,9.23076923 L13.8461538,9.23076923 Z M16,7.53846154 C16,8.86538462 15.8044872,9.92628205 15.4134615,10.7211538 C15.1698718,11.2147436 14.8317308,11.6410256 14.3990385,12 C13.9663462,12.3589744 13.5144231,12.6346154 13.0432692,12.8269231 C12.5721154,13.0192308 12.0272436,13.1714744 11.4086538,13.2836538 C10.7900641,13.3958333 10.2403846,13.4663462 9.75961538,13.4951923 C9.27884615,13.5240385 8.74358974,13.5384615 8.15384615,13.5384615 C7.65384615,13.5384615 7.19871795,13.5288462 6.78846154,13.5096154 C6.37820513,13.4903846 5.90544872,13.4503205 5.37019231,13.3894231 C4.8349359,13.3285256 4.34615385,13.2323718 3.90384615,13.1009615 C3.46153846,12.9695513 3.0224359,12.8044872 2.58653846,12.6057692 C2.15064103,12.4070513 1.76282051,12.1474359 1.42307692,11.8269231 C1.08333333,11.5064103 0.807692308,11.1378205 0.596153846,10.7211538 C0.198717949,9.93269231 0,8.87179487 0,7.53846154 C0,6.01923077 0.435897436,4.75 1.30769231,3.73076923 C1.13461538,3.20512821 1.04807692,2.66025641 1.04807692,2.09615385 C1.04807692,1.3525641 1.21153846,0.653846154 1.53846154,0 C2.23076923,0 2.83974359,0.126602564 3.36538462,0.379807692 C3.89102564,0.633012821 4.49679487,1.02884615 5.18269231,1.56730769 C6.125,1.34294872 7.11538462,1.23076923 8.15384615,1.23076923 C9.1025641,1.23076923 10,1.33333333 10.8461538,1.53846154 C11.5192308,1.01282051 12.1185897,0.625 12.6442308,0.375 C13.1698718,0.125 13.775641,0 14.4615385,0 C14.7884615,0.653846154 14.9519231,1.3525641 14.9519231,2.09615385 C14.9519231,2.65384615 14.8653846,3.19230769 14.6923077,3.71153846 C15.5641026,4.73717949 16,6.01282051 16,7.53846154 L16,7.53846154 Z"></path>
            </g>
        </g>
    </g>
</svg>

<svg width="16" height="14" viewBox="0 0 16 14" xmlns="http://www.w3.org/2000/svg"><title>icon-github</title><path d="M6.154 9.23c0 .257-.04.52-.12.79-.08.268-.218.512-.414.73a.907.907 0 0 1-1.394 0 1.893 1.893 0 0 1-.413-.73c-.08-.27-.12-.533-.12-.79 0-.256.04-.518.12-.788.08-.269.217-.513.413-.73a.907.907 0 0 1 1.394 0c.196.217.334.461.414.73.08.27.12.532.12.789zm6.154 0c0 .257-.04.52-.12.79-.08.268-.218.512-.414.73a.907.907 0 0 1-1.394 0 1.893 1.893 0 0 1-.414-.73c-.08-.27-.12-.533-.12-.79 0-.256.04-.518.12-.788.08-.269.218-.513.414-.73a.907.907 0 0 1 1.394 0c.196.217.333.461.414.73.08.27.12.532.12.789zm1.538 0c0-.768-.221-1.422-.663-1.96-.443-.54-1.042-.808-1.798-.808-.263 0-.888.067-1.875.201A9.9 9.9 0 0 1 8 6.77a9.9 9.9 0 0 1-1.51-.106c-.974-.134-1.599-.201-1.875-.201-.756 0-1.355.269-1.798.807-.442.539-.663 1.193-.663 1.962 0 .564.102 1.056.308 1.476.205.42.464.75.778.99s.706.433 1.173.577c.468.144.917.239 1.347.284.43.045.907.067 1.432.067h1.616c.525 0 1.003-.022 1.432-.067.43-.045.879-.14 1.347-.284a3.713 3.713 0 0 0 1.173-.577c.314-.24.573-.57.778-.99.206-.42.308-.912.308-1.476zM16 7.539c0 1.327-.196 2.388-.587 3.183-.243.494-.581.92-1.014 1.279a5.206 5.206 0 0 1-1.356.827 8.216 8.216 0 0 1-1.634.457c-.619.112-1.169.182-1.65.211a27.01 27.01 0 0 1-1.605.043c-.5 0-.955-.01-1.366-.028-.41-.02-.883-.06-1.418-.12a8.548 8.548 0 0 1-1.466-.289 10.128 10.128 0 0 1-1.317-.495 4.253 4.253 0 0 1-1.164-.78c-.34-.32-.615-.688-.827-1.105C.2 9.933 0 8.871 0 7.538 0 6.02.436 4.75 1.308 3.731a5.193 5.193 0 0 1-.26-1.635c0-.743.164-1.442.49-2.096.693 0 1.302.127 1.827.38.526.253 1.132.649 1.818 1.187a12.79 12.79 0 0 1 2.97-.336c.95 0 1.847.102 2.693.307.673-.525 1.273-.913 1.798-1.163C13.17.125 13.776 0 14.462 0c.326.654.49 1.353.49 2.096 0 .558-.087 1.096-.26 1.616C15.564 4.737 16 6.012 16 7.538z" fill="#ECEFF1" fill-rule="evenodd"/></svg>
